X:1
T:He Arose
T:He Arose
T:George Crawford Hugg
T:George Crawford Hugg, 1891
T:Public Domain Courtesy of the Cyber Hymnal™
T:Public Domain Courtesy of the Cyber Hymnal™
C:George Crawford Hugg
Z:Public Domain
Z:Courtesy of the Cyber Hymnal™
%%score ( 1 2 ) ( 3 4 )
L:1/8
Q:1/4=110
M:4/4
K:G
V:1 treble 
V:2 treble 
V:3 bass 
V:4 bass 
V:1
 [GB]4 [FA]2 [EG]2 | [^DF]2 [Dc]2 [Ec]4 | c4 [GB]2 [FA]2 | [GB]4 [GB]4 | [Gd]4 [Gd]2 [Ge]2 | %5
w: 1.~Low- ly en-|tombed He lay,|My bless- èd|Sav- ior;|Wait- ing the|
w: 2.~Vain- ly they|watch Him now,|My bless- èd|Sav- ior;|Sure- ly He’ll|
w: 3.~Burst- ing the|seal, He rose,|My bless- èd|Sav- ior;|Scat- t’ring His|
 [Gd]2 [GB]2 [FA]4 | [EG]4 [DF]2 [^CE]2 | D6 z2 ||"^Refrain" [DG]2 [GB]>[GA] G2 [GB]>[Gc] | %9
w: prom- ised day,|My pre- cious|Lord.||
w: keep His vow,|My pre- cious|Lord.|Up from the tomb He a-|
w: arm- èd foes,|My pre- cious|Lord.||
 [Gd]6 [Gd]>[Gd] | [Ge]2 [Ge]2 [Gd]>[GB] G>[GB] | [FA]6 [FA]>[GB] | %12
w: |||
w: rose! And in|tri- umph, van- quished all His|foes; He a-|
w: |||
 [Ac]2 [Ac]2 [Ac]>[Ac] [GB]>[FA] | [GB]2 [GB]2 [GB]2 G>[GB] | [Gd]2 [Gd]2 [Gd]>[Ge] [Gd]>[GB] | %15
w: |||
w: rose a vic- tor o’er the|realms of night; And He|reigns for- ev- er with His|
w: |||
 [GB]2 [FA]2 [FA]2 D>G | z2 G2 G>B x2 | z2 [Gd]>[Gc] x6 | [GB]2 [Gc]2 [FA]3 G | G6 z2 |] %20
w: |||||
w: saints in light, He a-|rose (He a-|rose), He|a- rose (He a-|rose),|
w: |||||
V:2
 x8 | x8 | (F2 A2) x4 | x8 | x8 | x8 | x8 | D6 x2 || x4 G2 x2 | x8 | x6 G3/2 x/ | x8 | x8 | %13
 x6 G3/2 x/ | x8 | x8 | B4 G>G x2 | d6 G>G G2 | x7 G | G6 x2 |] %20
V:3
 [G,D]4 [D,C]2 [E,B,]2 | B,2 [A,C]2 [A,C]4 | [D,D]4 [D,D]2 [D,D]2 | [G,D]4 [G,D]4 | %4
w: ~ ~ ~|~ ~ ~|~ ~ ~|~ ~|
 [G,B,]4 [G,B,]2 [F,C]2 | [G,B,]2 [G,D]2 [D,D]4 | [A,^C]4 [A,,A,]2 [A,,G,]2 | [D,F,]6 z2 || %8
w: ~ ~ ~|~ ~ ~|~ ~ ~|~|
 [G,B,]2 [G,D]>[G,C] [G,B,]2 [G,D]>[G,A,] | [G,B,]2 [G,B,]>[G,B,] [G,B,]2 [G,B,]>[G,B,] | %10
w: ~ ~ ~ ~ ~ ~|~ He a- rose! ~ ~|
 [C,C]2 [C,C]2 [G,B,]>[G,D] [G,B,]>[G,D] | [D,D]2 [D,D]>[D,D] [D,D]2 [D,D]>[D,D] | %12
w: ~ ~ ~ ~ ~ ~|~ all His foes; * *|
 [D,D]2 [D,D]2 [D,D]>[D,D] [D,D]>[D,D] | [G,D]2 [G,D]2 [G,D]2 [G,B,]>[G,D] | %14
w: ||
 [G,B,]2 [G,B,]2 [G,B,]>[G,C] [G,B,]>[G,D] | [D,D]2 [D,D]2 [D,D]2 z2 | z2 [G,D]>[G,D] [G,D]2 z2 | %17
w: |||
 z2 [G,B,]>[G,B,] [G,B,]2 [G,B,]>[G,C] x2 | [G,D]2 [C,E]2 [D,C]3 [G,B,] | [G,B,]6 z2 |] %20
w: |||
V:4
 x8 | B,2 x6 | x8 | x8 | x8 | x8 | x8 | x8 || x8 | x8 | x8 | x8 | x8 | x8 | x8 | x8 | x8 | x10 | %18
 x8 | x8 |] %20

